X: 16
T: Denis Murphy's
Z: Paul Joosten
S: https://thesession.org/tunes/357#setting52869
R: polka
M: 2/4
L: 1/8
K: Dmaj
|:f/g/f/e/ d/e/d/B/|AD FA|GE e>d|cA ~BA|!
f/g/f/e/ d/e/d/B/|AD FA|GE ef/e/|df d2:|!
|:Af f/e/f|Bg g/f/g|Af f/e/f|e/f/e/d/ cB|!
Af f/e/f|Bg g/f/g/a/|ba f/a/a/f/|ed d2:|!

%-------------------- TUNE SEPARATOR --------------------%

